img/cab__balance-icon__01.svg

<svg width="29" height="29" viewBox="0 0 29 29" fill="none" xmlns="http://www.w3.org/2000/svg">
<path d="M24.7413 4.2587C21.9951 1.51242 18.358 0 14.5 0C10.642 0 7.00492 1.51242 4.2587 4.2587C1.51242 7.00492 0 10.642 0 14.5C0 18.358 1.51242 21.9951 4.2587 24.7413C7.00492 27.4876 10.642 29 14.5 29C18.358 29 21.9951 27.4876 24.7413 24.7413C27.4876 21.9951 29 18.358 29 14.5C29 10.642 27.4876 7.00492 24.7413 4.2587ZM14.5 27.3008C7.44162 27.3008 1.69922 21.5584 1.69922 14.5C1.69922 7.44162 7.44162 1.69922 14.5 1.69922C21.5584 1.69922 27.3008 7.44162 27.3008 14.5C27.3008 21.5584 21.5584 27.3008 14.5 27.3008Z" fill="black"/>
<path d="M14.498 3.45508C8.40788 3.45508 3.45312 8.40983 3.45312 14.5C3.45312 20.5902 8.40788 25.5449 14.498 25.5449C20.5882 25.5449 25.543 20.5902 25.543 14.5C25.543 8.40983 20.5882 3.45508 14.498 3.45508ZM14.498 23.8457C9.34483 23.8457 5.15234 19.6532 5.15234 14.5C5.15234 9.34678 9.34483 5.1543 14.498 5.1543C19.6513 5.1543 23.8438 9.34678 23.8438 14.5C23.8438 19.6532 19.6513 23.8457 14.498 23.8457Z" fill="black"/>
<path d="M17.0469 11.9434C17.0469 12.4126 17.4273 12.793 17.8965 12.793C18.3657 12.793 18.7461 12.4126 18.7461 11.9434C18.7461 11.0025 18.2594 10.0978 17.4108 9.46142C16.8312 9.02671 16.1181 8.73631 15.3477 8.61278V7.69531C15.3477 7.2261 14.9673 6.8457 14.498 6.8457C14.0288 6.8457 13.6484 7.2261 13.6484 7.69531V8.61278C12.878 8.73631 12.1648 9.02671 11.5852 9.46142C10.7367 10.0978 10.25 11.0025 10.25 11.9434C10.25 12.8843 10.7367 13.7889 11.5852 14.4254C12.1648 14.8601 12.878 15.1505 13.6484 15.2741V18.639C12.6697 18.3998 11.9492 17.7647 11.9492 17.0411C11.9492 16.5719 11.5688 16.1915 11.0996 16.1915C10.6304 16.1915 10.25 16.5719 10.25 17.0411C10.25 17.982 10.7367 18.8866 11.5852 19.5231C12.1648 19.9578 12.878 20.2482 13.6484 20.3717V21.2977C13.6484 21.7669 14.0288 22.1473 14.498 22.1473C14.9673 22.1473 15.3477 21.7669 15.3477 21.2977V20.3717C16.1181 20.2482 16.8313 19.9578 17.4108 19.5231C18.2594 18.8866 18.7461 17.982 18.7461 17.0411C18.7461 16.1002 18.2594 15.1955 17.4108 14.5591C16.8312 14.1244 16.1181 13.834 15.3477 13.7104V10.3455C16.3264 10.5847 17.0469 11.2198 17.0469 11.9434ZM11.9492 11.9434C11.9492 11.2198 12.6697 10.5847 13.6484 10.3455V13.5413C12.6697 13.3022 11.9492 12.667 11.9492 11.9434ZM17.0469 17.0411C17.0469 17.7647 16.3264 18.3998 15.3477 18.639V15.4432C16.3264 15.6824 17.0469 16.3175 17.0469 17.0411Z" fill="black"/>
</svg>

<svg width="29" height="29" fill="none" xmlns="http://www.w3.org/2000/svg"><path d="M24.741 4.259C21.995 1.512 18.358 0 14.5 0 10.642 0 7.005 1.512 4.259 4.259 1.512 7.005 0 10.642 0 14.5c0 3.858 1.512 7.495 4.259 10.241C7.005 27.488 10.642 29 14.5 29c3.858 0 7.495-1.512 10.241-4.259C27.488 21.995 29 18.358 29 14.5c0-3.858-1.512-7.495-4.259-10.241zM14.5 27.3c-7.058 0-12.8-5.742-12.8-12.8S7.441 1.7 14.5 1.7c7.058 0 12.8 5.742 12.8 12.8 0 7.058-5.742 12.8-12.8 12.8z" fill="#000"/><path d="M14.498 3.455C8.408 3.455 3.453 8.41 3.453 14.5s4.955 11.045 11.045 11.045S25.543 20.59 25.543 14.5 20.588 3.455 14.498 3.455zm0 20.39c-5.153 0-9.346-4.192-9.346-9.345 0-5.153 4.193-9.346 9.346-9.346 5.153 0 9.346 4.193 9.346 9.346 0 5.153-4.193 9.346-9.346 9.346z" fill="#000"/><path d="M17.047 11.943a.85.85 0 001.7 0c0-.94-.488-1.845-1.336-2.482a4.67 4.67 0 00-2.063-.848v-.918a.85.85 0 00-1.7 0v.918a4.67 4.67 0 00-2.063.848c-.848.637-1.335 1.541-1.335 2.482 0 .941.487 1.846 1.335 2.482a4.67 4.67 0 002.063.85v3.364c-.978-.24-1.699-.874-1.699-1.598a.85.85 0 00-1.699 0c0 .941.487 1.846 1.335 2.482a4.67 4.67 0 002.063.849v.926a.85.85 0 001.7 0v-.926a4.668 4.668 0 002.063-.849c.848-.636 1.335-1.541 1.335-2.482 0-.94-.487-1.846-1.335-2.482a4.67 4.67 0 00-2.063-.849v-3.365c.978.24 1.699.875 1.699 1.598zm-5.098 0c0-.723.72-1.358 1.7-1.598v3.196c-.98-.239-1.7-.874-1.7-1.598zm5.098 5.098c0 .724-.72 1.359-1.7 1.598v-3.196c.98.24 1.7.874 1.7 1.598z" fill="#000"/></svg>
